X:39
T:Seamus O'Shanahan's
C:Paul O'Shaughnessy
S:Bernie Waugh
R:Jig
M:6/8
L:1/8
K:Am
|:\
"Am"EAA ABc|"G"BGG GBd|"C"edc Bcd|"Em"(B~c2) BGF|
"Am"~E3 ABc|"G"BGG GBd|"F"edc "Em"Bcd|1\
"Dm"cAG ~A2G:|2"Am"cAG A/A/Bc||
"Dm"d2f ~fgf|"Am"ecA Adc|"E7"~B2d ~dcB|"Am/A7"cee ecA|
"Dm"dff fgf|"Am"ecA Adc|"E"B/c/Bd cBG|"Am"ABA A2A|
"Dm"d2f ~fgf|"Am"ecA Adc|"E7"~B2d ~dcB|"Am/A7"cee ecA|
"Dm"dfg agf|"Am"ecA Adc|"E"B/c/Bd cBG|"F"AcA "G"BGF||

